!!!OTL: Liebeszauber.
!!!OTL-incipit: MAEDEL SCHAU MIR INS GESICHT
!!!COM: J. Ab. P. Schulz
!!!ARE: Europa, Mitteleuropa, Deutschland
!!!SCT: F0909
!!!TXL: @@DE
!!!YEM: Copyright 1995, estate of Helmut Schaffrath.
**kern	**text
*ICvox	*
*clefG2	*
*M2/4	*
*k[f#c#g#]	*
*A:	*
!LO:TX:a:t=Lebhaft.	!
{8.ee	1._Mä-
16cc#	-del,
=1	=1
8a	ſchau
8a	mir
8b	in's
16b/L	Ge-
16cc#J	.
=2	=2
4a}	-ſicht!
{8.ee	Schelmen-
16cc#	.
=3	=3
8a	-au-
8a	-ge
8b/	blinʒ-
16.b/L	-le
32cc#J	.
=4	=4
4a}	nicht!
{16g#L	Mä-
16aJ	.
16b/L	-del,
16ccJ#	.
=5	=5
8dd	mer-
8b	-ke,
8cc#	was
8a	ich
=6	=6
8b/	ſa-
8e}	-ge!
{16g#L	gieb
16aJ	.
16b/L	mir
16cc#J	.
=7	=7
8dd	Re-
8b	-de,
8cc#	wenn
8a	ich
=8	=8
8b	fra-
8e}	-ge!
{8.cc#	Hol-
16dd	-la
=9	=9
8ee	hoch
8ee	mir
8.cc#	in's
16dd	Ge-
=10	=10
4ee}	-ſicht!
!LO:TUP:a	!
{12ff#L	Schelmen-
12ddJ	.
12b	.
=11	=11
!LO:TUP:a	!
12eeL	-au-
12cc#J	.
12a	-ge,
!LO:TUP:a	!
12ddL	blinʒ-
12bJ	.
12g#	-le
=12	=12
4a}	nicht!
==	==
!!!AGN: Liebes - Lied
!!!ONB: ESAC (Essen Associative Code) Database: FINK
!!!AMT: simple duple
!!!AIN: vox
!!!EED: Helmut Schaffrath
!!!EEV: 1.0
!!Text: G. A. Buerger
!!!GTL: Minnelieder
!!!source: Musikalischer Hausschatz der Deutschen. Eine Sammlung von über 1000 Liedern und Gesängen mit Singstimmen und Klavierbegleitung. Leipzig, Litterarisches Verlags-Haus.
!!!page: 673
!!!URL-scan: https://www.digitale-sammlungen.de/en/view/bsb11144622?page=583
!!!ENC: Anna Maria Matuszewska
!!!EEV: 2024/08/07
*-	*-